!!!OTL: HANS PITTF[ERK3EN LIET SIEN
!!!ARE: Europa, Mitteleuropa, Deutschland, Niederrhein, Meurs
!!!SCT: E1820
!!!YEM: Copyright 1995, estate of Helmut Schaffrath.
**kern
*ICvox
*Ivox
*M2/4
*k[]
*C:
{8G
=1
8c
8c
8G
8G
=2
8A
8A
8G
8r}
=3
{8c
8c
8G
8G
=4
8A
8A
8G}
{8G
=5
8c
8c
8G
8G
=6
8A
8A
8G
8r}
=7
{8c
8c
8G
8G
=8
8A
8A
8G
8r}
=9
{8e
8e
8d
8c
=10
4e
8e
8r}
=11
{8d
8d
8d
8e
=12
8c
8c
8c
8r}
=13
{8e
8e
8d
8c
=14
4e
8e
8r}
=15
{8d
8d
8d
8e
=16
8c
8c
8c
8r}
==
!!!AGN: Kinder -, Wiegen -, Schlaf - Lied
!!!ONB: ESAC (Essen Associative Code) Database: ERK3
!!!AMT: simple duple
!!!AIN: vox
!!!EED: Helmut Schaffrath
!!!EEV: 1.0
*-
